Cloud/dashboard/static/tracks/fuji_speedway.svg

<?xml version="1.0" encoding="UTF-8"?>
<!-- Uploaded to: SVG Find, www.svgfind.com, Generator: SVG Find Mixer Tools -->
<svg fill="#000000" width="800px" height="800px" version="1.1" viewBox="144 144 512 512" xmlns="http://www.w3.org/2000/svg">
 <path d="m610.93 211.54c-4.582-5.6992-13.309-7.1797-19.508-3.082l-241.68 159.89-2.9414-4.457 36.508-24.086 9.75-6.4297-16.375 0.62891-1.1758 4.8438-35.77 23.598 5.75 8.7148-151.81 100.44c-5.2656 3.4805-8.2305 9.5625-7.75 15.871 0.48828 6.3242 4.1992 11.676 9.9336 14.309 13.609 6.25 30.281 1.4336 47.973-14.152 1.0898-0.96094 2.3047-2.1484 3.6094-3.4258 3.6328-3.5625 9.1211-8.9492 12.73-8.9492 0.47266 0 1.9141 0 3.8906 2.9492 7.2773 10.875 2.793 23.293-5.7461 29.012-4.7812 3.1992-7.8945 4.0508-11.496 5.043-3.7656 1.0352-8.043 2.207-13.816 6.0742-8.2852 5.543-7.8242 16.75 1.2773 30.754 1.543 2.3633 3.3594 4.4648 5.4062 6.2422 5.8828 5.1211 14.59 10.391 20.867 13.914 4.2148 2.3633 9.293 3.0664 13.98 1.9766 2.8125-0.65625 6.1172-1.3945 9.2422-2.0586 0.36328 0 0.61328 0.20312 0.73047 0.32031 0.21484 0.21875 0.3125 0.48828 0.30469 0.80469-0.10156 3.5781-0.51172 7.5352-1.2305 11.77-0.49219 2.9492 0.32422 5.9375 2.2383 8.2031 1.9492 2.3047 4.793 3.6289 7.7891 3.6289 1.8164 0 3.6133-0.5 5.1953-1.4453l68.754-40.965c5.7617-3.4297 10.734-7.8398 14.781-13.102 10.539-13.68 20.918-33.367 26.484-43.941l2.375-4.4727c4.7969-8.9141 4.1992-21.738 3.3672-39.484-0.25781-5.5625-0.54297-11.602-0.67578-18.105-0.20312-9.6445 2.9805-18.684 9.4766-26.871 1.5312-1.9336 3.5547-2.2227 4.6172-2.2227 2.1133 0 4.0469 1.0664 5.1641 2.8516 6.3047 10.051 15.422 24.645 21.746 35.07 7.3711 12.148 20.668 19.402 35.57 19.402 8.1875 0 16.195-2.2305 23.156-6.4531 19.438-11.793 24.707-33.543 21.379-48.754-1.9453-8.9141-8.4062-29.91-13.488-45.957-1.4844-4.6797-0.28516-9.7812 3.1289-13.32l75.082-77.953c3.6328-3.7656 6.1406-8.4531 7.2578-13.551l6.7773-30.816c0.96484-4.3633-0.070313-8.8281-2.8281-12.254zm-7.1211 10.059-6.7773 30.82c-0.71484 3.2578-2.3203 6.2539-4.6445 8.6641l-75.078 77.949c-6.0078 6.2305-8.1172 15.223-5.5039 23.469 4.1016 12.969 11.281 36.07 13.246 45.059 2.5781 11.789-1.5547 28.668-16.711 37.863-5.3711 3.2539-11.547 4.9766-17.871 4.9766-11.312 0-21.355-5.418-26.859-14.492-6.3516-10.465-15.496-25.113-21.832-35.199-2.9922-4.7734-8.1523-7.625-13.793-7.625-4.9453 0-9.5391 2.2188-12.602 6.0781-7.8984 9.9531-11.938 21.512-11.684 33.422 0.14062 6.5977 0.42188 12.727 0.6875 18.367 0.72656 15.5 1.2969 27.746-2.1602 34.176l-2.418 4.5547c-5.4297 10.305-15.531 29.484-25.543 42.477-3.2578 4.2383-7.2695 7.793-11.918 10.562l-68.695 40.93c0.78125-4.6523 1.2344-9.0508 1.3555-13.07 0.085937-3.082-1.043-5.9961-3.1914-8.1953-2.1055-2.168-5.0352-3.4102-8.0391-3.4102-0.81641 0-1.6367 0.089844-2.4453 0.26562-2.9219 0.64844-6.2656 1.3984-9.1133 2.0586-2.25 0.52344-4.668 0.18359-6.6836-0.94141-4.7891-2.6914-13.652-7.918-19.16-12.711-1.3281-1.1602-2.5273-2.5469-3.5469-4.1172-4.3984-6.7656-7.3906-14.562-4.1562-16.723 4.3984-2.9453 7.3906-3.7656 10.848-4.7188 3.8906-1.0664 8.3008-2.2773 14.461-6.3984 12.699-8.5039 19.375-26.969 8.5508-43.148-4.1367-6.1758-9.0039-7.4727-12.363-7.4727-7.7695 0-14.477 6.5781-19.867 11.867-1.1641 1.1406-2.2383 2.1992-3.2109 3.0547-14.422 12.703-27.082 17.09-36.977 12.539-3.3477-1.5391-3.9375-4.5898-4.0312-5.832-0.20313-2.6641 0.99609-5.125 3.2109-6.5898l397.75-263.14c1.9844-1.3203 4.5234-0.79688 5.9414 0.96484 0.58594 0.71875 1.2031 1.9453 0.82422 3.668z"/>
</svg>

<?xml version="1.0" encoding="utf-8"?>
<svg fill="#000000" width="800px" height="800px" version="1.1" viewBox="144 144 512 512" xmlns="http://www.w3.org/2000/svg">
  <path d="M 610.93 211.54 C 606.348 205.841 597.621 204.36 591.422 208.458 L 193.678 471.601 C 188.412 475.081 185.447 481.163 185.928 487.472 C 186.416 493.796 190.127 499.148 195.861 501.781 C 209.47 508.031 226.142 503.214 243.834 487.629 C 244.924 486.668 246.139 485.48 247.444 484.203 C 251.077 480.641 256.565 475.254 260.174 475.254 C 260.646 475.254 262.088 475.254 264.064 478.203 C 271.342 489.078 266.857 501.496 258.318 507.215 C 253.537 510.414 250.424 511.266 246.822 512.258 C 243.057 513.293 238.779 514.465 233.006 518.332 C 224.721 523.875 225.182 535.082 234.284 549.086 C 235.827 551.45 237.643 553.551 239.69 555.328 C 245.573 560.45 254.28 565.719 260.557 569.242 C 264.772 571.606 269.85 572.309 274.537 571.219 C 277.349 570.563 280.654 569.825 283.779 569.16 C 284.142 569.16 284.392 569.364 284.509 569.481 C 284.724 569.7 284.822 569.969 284.814 570.285 C 284.713 573.864 284.302 577.821 283.584 582.055 C 283.091 585.005 283.908 587.993 285.822 590.259 C 287.771 592.563 290.615 593.888 293.611 593.888 C 295.427 593.888 297.224 593.388 298.806 592.442 L 367.56 551.477 C 373.322 548.047 378.294 543.637 382.341 538.375 C 392.88 524.695 403.259 505.008 408.825 494.434 L 411.2 489.961 C 415.997 481.047 415.4 468.223 414.568 450.477 C 414.31 444.915 414.025 438.875 413.892 432.372 C 413.689 422.728 416.872 413.688 423.368 405.501 C 424.9 403.568 426.923 403.279 427.986 403.279 C 430.099 403.279 432.032 404.345 433.15 406.13 C 439.454 416.181 448.572 430.775 454.896 441.2 C 462.267 453.348 475.564 460.602 490.466 460.602 C 498.653 460.602 506.661 458.372 513.622 454.149 C 533.06 442.356 538.329 420.606 535.001 405.395 C 533.055 396.481 526.594 375.485 521.513 359.438 C 520.028 354.759 521.228 349.657 524.642 346.118 L 599.724 268.165 C 603.356 264.4 605.864 259.712 606.981 254.614 L 613.759 223.798 C 614.724 219.435 613.688 214.97 610.931 211.544 L 610.93 211.54 Z M 603.809 221.599 L 597.032 252.419 C 596.317 255.677 594.711 258.673 592.387 261.083 L 517.309 339.032 C 511.301 345.263 509.192 354.255 511.805 362.501 C 515.907 375.47 523.086 398.571 525.051 407.56 C 527.629 419.349 523.497 436.228 508.34 445.423 C 502.969 448.677 496.793 450.4 490.469 450.4 C 479.157 450.4 469.114 444.982 463.61 435.908 C 457.259 425.443 448.114 410.795 441.778 400.709 C 438.786 395.935 433.626 393.084 427.985 393.084 C 423.04 393.084 418.446 395.302 415.383 399.162 C 407.485 409.115 403.445 420.674 403.699 432.584 C 403.84 439.181 404.121 445.311 404.387 450.951 C 405.113 466.451 405.684 478.697 402.227 485.127 L 399.809 489.681 C 394.379 499.986 384.278 519.165 374.266 532.158 C 371.008 536.397 366.996 539.951 362.348 542.72 L 293.653 583.65 C 294.434 578.998 294.887 574.6 295.008 570.58 C 295.094 567.498 293.965 564.584 291.817 562.385 C 289.711 560.217 286.781 558.975 283.778 558.975 C 282.961 558.975 282.141 559.065 281.332 559.241 C 278.41 559.889 275.067 560.639 272.219 561.299 C 269.969 561.823 267.551 561.483 265.535 560.358 C 260.746 557.666 251.883 552.44 246.375 547.647 C 245.047 546.487 243.848 545.1 242.828 543.53 C 238.43 536.764 235.438 528.968 238.672 526.807 C 243.071 523.861 246.063 523.041 249.52 522.088 C 253.411 521.021 257.821 519.81 263.981 515.689 C 276.68 507.185 283.356 488.72 272.532 472.541 C 268.395 466.366 263.528 465.069 260.169 465.069 C 252.4 465.069 245.692 471.647 240.302 476.936 C 239.138 478.076 238.064 479.135 237.091 479.99 C 222.669 492.693 210.009 497.08 200.114 492.529 C 196.766 490.99 196.177 487.94 196.083 486.697 C 195.88 484.033 197.079 481.572 199.294 480.108 L 597.044 216.967 C 599.028 215.647 601.567 216.171 602.985 217.932 C 603.571 218.651 604.188 219.878 603.809 221.6 L 603.809 221.599 Z"/>
</svg>
